X: 113
T: Chickadee's Polka
C: Bob McQuillen  Oct '75
B: Bob's Note Book 1 #22
I: scale 0.8
M: 4/4
R: polka
K: Dmaj
de \
| "D"f2d2 A2de | f2>d2 A2de | fed2 "G"Bcd2 | B4 "D/F#"A3F | "G"G2B2 B2AG | "D"FGA2A2f2 | "E7"f2e2 B2f2 | "A7"f4 e2de |
| "D"f2d2 A2de | f2>d2 A2de | fed2 "G"Bcd2 | B4 "D/F#"A3A | "G"B2d2 g2b2 | "D"b2a2 f2ag | "Em"f2e2 "A"B2c2 | "D"d4-d2 ||
|| AG \
| "D"F2D2 D2AG | F2D2 D2AG | F2A2 "A7"d2e2 | "D"f4 d2^d2 | "G"e3f e2d2 | "G"BcdB "D/F#"A2F2 | "Em"B2A2 "G"G2F2 | "A"E4 "A7"-E2AG |
| "D"F2D2 D2AG | F2D2 D2AG | F2A2 "A7"d2e2 | "D"f4 d2^d2 |"G"e3f e2d2| "Em"BcdB "D"A2F2 | "A7"B2 G2EFGA | "D"F2D4 |]

